X:1
T:Title
%%score { ( 1 3 ) | ( 2 4 ) }
L:1/8
M:4/4
K:Bb
V:1 treble nm="Grand Piano"
V:3 treble 
V:2 bass 
V:4 bass 
V:1
 z4 z2[Q:1/4=100] [B,D][CE] | [DF]3 [EG] [DF]2 [FB]2 | [EB]2 [EA]2 [EG]2 [EF]2 | c3 c B2 c2 | %4
[M:3/4] [Fd]6 |[M:1/4] [Fd][Fc] |[M:4/4] [B,GB]3 [C^FA] [B,GB]2 [B,EG]2 | %7
 [B,EG]2 [B,DF]2 [DF]2 [_DFG]2 | [FA]3 [FA] [=EG]2 [Ec]2 |[M:3/4] c6 |[M:1/4] FG | %11
[M:4/4] B2 A2 G2 F2 | [DF]2 [DB]2 [DF]2 [DG]2 | B2 A2 B2 c2 |[M:3/4] d6 |[M:1/4] dd | %16
[M:4/4] z4 z2 B2 | G2 [Ge]2 [Fd]2 c2 | F2 d2 c3 B |[M:3/4] [DB]6 |[M:1/4] Bc | %21
[M:4/4] d2 d2 F2 [Fd]2 | [Fe]6 z2 | z4 z2 c2 | [Fd]6 [DB][Ec] | [Fd]2 [DFB]2 [C^FA]2 [DFB]2 | %26
 [B,G]2 [Ge]2 [Fd]2 c2 | F2 d2 c3 B |[M:3/4] [DB]6 |] %29
V:2
 z4 z2 [B,,F,][B,,F,] | [B,,B,]3 [B,,B,] [B,,B,]2 [D,B,]2 | [C,F,]2 [C,F,]2 [C,G,]2 [C,A,]2 | %3
 [F,A,E]3 [F,A,E] [F,B,D]2 [F,A,F]2 |[M:3/4] [B,,B,]6 |[M:1/4] [B,,B,][B,,B,] | %6
[M:4/4] E,3 E, E,2 E,2 | B,,2 B,,2 B,,2 B,,2 | [C,C]3 [C,C] [C,B,]2 [C,B,]2 |[M:3/4] [F,A,E]6 | %10
[M:1/4] [F,A,E][F,B,E] |[M:4/4] [F,CE]2 [F,CE]2 [F,B,E]2 [F,A,E]2 | %12
 [B,,B,]2 [B,,F,]2 [B,,B,]2 [B,,B,]2 | [F,CE]2 [F,CE]2 [F,B,D]2[K:treble] [F,A,F]2 | %14
[M:3/4] [B,F]6 |[M:1/4] [B,F][B,F] |[M:4/4] [A,D^F]2 [A,DF]2 [G,DG]2 .[G,DG]2 | %17
 [E,B,E]2 [C,C]2 [D,=B,]2 [E,CE]2 | [F,B,D]2 [F,B,F]2 [F,A,E]3 [F,D] |[M:3/4] [B,,F,]6 | %20
[M:1/4][K:treble] [B,D][B,E] |[M:4/4] [B,F]2 [B,F]2 [B,D]2[K:bass] [B,,B,]2 | %22
 [C,A,]C,C,C, C,2 [F,CE][F,B,D] | z4 z2 E2 | B,4 z4 | [B,,B,]2 B,,2 D,2 D,2 | %26
 E,2 [C,C]2 [D,=B,]2 [E,CE]2 | [F,B,D]2 [F,B,F]2 [F,A,E]3 [F,D] |[M:3/4] [B,,F,]6 |] %29
V:3
 x8 | x8 | x8 | x8 |[M:3/4] x6 |[M:1/4] x2 |[M:4/4] x8 | x8 | x8 |[M:3/4] x6 |[M:1/4] x2 | %11
[M:4/4] x8 | x8 | x8 |[M:3/4] x6 |[M:1/4] x2 |[M:4/4] d2 c2 c2 z B, | x8 | x8 |[M:3/4] x6 | %20
[M:1/4] x2 |[M:4/4] x8 | z A,A,A, A,2 AB | c2 c2 F2 z A, | x8 | x8 | x8 | x8 |[M:3/4] x6 |] %29
V:4
 x8 | x8 | x8 | x8 |[M:3/4] x6 |[M:1/4] x2 |[M:4/4] x8 | x8 | x8 |[M:3/4] x6 |[M:1/4] x2 | %11
[M:4/4] x8 | x8 | x6[K:treble] x2 |[M:3/4] x6 |[M:1/4] x2 |[M:4/4] x8 | x8 | x8 |[M:3/4] x6 | %20
[M:1/4][K:treble] x2 |[M:4/4] x6[K:bass] x2 | x8 | [F,A,E]2 [F,A,E]2 [F,A,E]2 [F,A,]F, | %24
 B,,B,,D,F, B,2 [B,,B,][B,,B,] | x8 | x8 | x8 |[M:3/4] x6 |] %29

